X:3637
T:Cumberland reel
S:Charlie Menzies
R:Jig
O:England
O:Scotland
M:6/8
K:D
f2e d2c | d2B A2F | GFG EFG | F2G A2A |\
BGB dcB | AFA d2d | cde ABc | d3 d2 A:|
fff f2A | fff f2A | fff g2f | (e3 e2)A |\
eee e2A | eee e2A | e2f e2d | c2B ABc |
ded cBA | B2c d2A | ded cBA | B2c d2e | \
efe ecA | efe efg | a2A ABc | d3 d2 ||


